shader_type canvas_item;
//render_mode skip_vertex_transform;

void vertex() {
	// Called for every vertex the material is visible on.
	//VERTEX = (MODEL_MATRIX * vec4(VERTEX.x+ 100.0, VERTEX.y + 120.0, 0.0, 1.0)).xy;
}

void fragment() {
	// Called for every pixel the material is visible on.
	
}

//void light() {
//	// Called for every pixel for every light affecting the CanvasItem.
//	// Uncomment to replace the default light processing function with this one.
//}
